X:1
T:Con ghirlanda di rose
T:Mazzocchi Domenico
T:Prima parte
T:Con ghirlanda di rose
T:Source: Musice sacre et morali---Roma---L.Grignani---1640. Editor André Vierendeels (25/08/18) Notes : Original clefs : C1, F4 Text : Francesco Carducci "Moralità presa dall'Aurora"  
T:©
T:©
T:©
T:©
T:©
T:©
T:©
T:©
T:©
T:©
C:Mazzocchi Domenico
Z:©
%%score 1 { 2 | 3 }
L:1/8
Q:1/4=96
M:4/4
K:C
V:1 treble nm="Soprano" snm="S"
V:2 treble nm="MusicXML Part"
V:3 bass 
V:1
 z2 ^cc c2 cB | ^c2 cd TB2 BA | A4 A4 | z2 AA d2 cB | B2 B2 z/ G/A/B/ c/d/e/f/ | g2 cd d4 | %6
w: Con ghir- lan- da di|ro- se, ed au- reo am-|man- te,|de la so- glia gem-|ma- ta e- * * * * * *|* sce l'Au- ro-|
 c4 z2 e2 | e>e fd e>B c>B | d2 d2 f2 fe | e>d cB c>B A/G/F/E/ | F d/e/ f/e/d/c/ B2 BB | B4 A4 | %12
w: ra, vè|co- me'il va- go Ciel di rai s'in-|do- ra, vè co- me|l'om- bra si di- le- * * * * *|* * * * * * * * gua in-|tan- to.|
 z4 G2 GG | AB cd B/G/A/B/ c/d/e/f/ | g/d/e/f/ g/f/g/d/ e/f/g/f/ e/d/c/B/ | %15
w: vè co- me'il|va- * go _ Ciel _ _ _ _ _ _ _|di _ _ _ ra- * * * * * * * * * * *|
 c/G/A/B/ c/f/e/g/ f/g/a/g/ f/e/d/c/ | d2 z e e4 | d4 z2 c2 | c3 B c3 B/A/ | G4 A4 | A4 A4- | %21
w: |i- s'in- do-|ra, vè|co- me l'om- bra _|_ si|de- lin-|
 A2 AB B4 | A8 ||"^Seconda parte" z2 ^c4 Bc | A2 A2 z2 AB | ^c2 cB d2 d2 | z2 de c2 cB | %27
w: * gua in- tan-|to.|Pian- ge la|bel- la, mà son|per- le il pian- to,|on- de'il pra- to ne|
 B2 B2 z2 e2- | e2 dd d>e f/d/e/f/ | e/d/e/f/ g/d/e/c/ d4 | c4 z eef | g2 g2 z ccc | c3 B d2 d2 | %33
w: ri- de, e|_ se n'in- fio- * * * * *||ra, per le cam-|pa- gne in- su- per-|bi- sce Flo- ra,|
 z2 de c2 cB | c2 c2 z2 e2 | f2 dc B4 | A8 | z2 G4 AB | B>c B>c d>e c>d | e4 eggg | %40
w: che di gem- me'o- do-|ro- se, hà|car- co il man-|to.|Per le cam-|pa- * * * * * * *|* gne in- su- per-|
 eg/f/ e/d/c/B/ A _b/a/ g/f/e/d/ | e4 d4 | z2 cc c2 cB | c/d/e/d/ c/d/B/A/ G/F/E/F/ G/A/B/G/ | %44
w: bi- * * * * * * * sce _ _ _ _ _|Flo- ra,|Che di gem- me'o- do-|ro- * * * * * * * * * * * * * * *|
 A/B/c/A/ B/A/B/c/ d2 de | f/e/d/c/ B/A/G/^F/ ^G2 GA | A2 ^G2 A4 ||"^Terza parte" z2 z ^c A4 | %48
w: * * * * * * * * * se hai|car- * * * * * * * * co il|tan- * to.|Ma che?|
 z ^f2 f/^c/ d =c2 c/B/ | B2 B2 z _B B>B | G3 ^F- G2 z c | e2 ed c3 B | d2 d2 z d2 d/e/ | %53
w: To sto de'i fior l'os- tro na-|sce- te, im- pa- li-|di- sce, _ à|pe- na u- sci l'al-|bo- re, che se ne|
 c2 cB c2 cB | A3 G F4 | E4 z2 z e | g2 gf e3 d | d2 d2 z e2 d/e/ | %58
w: vo- la il gior- no al-|l'Oc- ci- den-|te, à|pe- na u- sci l'al-|bo- re, che se ne|
 c/d/B/c/ A/d/c/d/ B/c/A/B/ G/g/f/g/ | e/f/d/e/ cc/B/ d2 de | fe dc B2 z A | ^G<^F E<D E4 | E8 || %63
w: vo- * * * * * * * * * * * * * * *|* * * * * la il gior- no al-|l'Oc- * ci- * den- *||te.|
"^Quarta et ultima parte" z2 ^cc A2 AG | A G2 G/^F/ F>E D2 | z2 ^FG A2 AG | B2 B2 z G2 F/E/ | %67
w: Co- s'il ben di quà|giu man- ca qual fio- * re,|bre- ve lu- c'è la|gio- ia, e di re-|
 E2 E2 G2 GG/G/ | TG3 A B4 | c4 A2 G^F | ^F4 E4 | z4 e4- | e2 dc B2 B2 | d2 dd/e/ c3 B | %74
w: pen- te, por- ta ad un|lie- to di,|not- te il do-|lo- re.|E|_ di re- pen- te,|por- ta ad un lie- to|
 B4 g/f/e/d/ e/d/c/A/ | B/A/G/A/ B/c/d/e/ f/g/f/e/ d/c/B/A/ | ^G2 E2 z2 e2- | e2 A4 Bc | %78
w: di not- * * * * * * *||* te, not|_ te il do-|
 ^G2- A4 G2 | A8 |] %80
w: lo- * re.|_|
V:2
 z8 | z8 | z8 | z8 |"^BC" z8 | z8 | z8 | z8 | z8 | z8 | z8 | z8 | z8 | z8 | z8 | z8 | z8 | z8 | %18
 z8 | z8 | z8 | z8 | z8 || z8 | z8 | z8 | z8 | z8 | z8 | z8 | z8 | z8 | z8 | z8 | z8 | z8 | z8 | %37
 z8 | z8 | z8 | z8 | z8 | z8 | z8 | z8 | z8 | z8 || z8 | z8 | z8 | z8 | z8 | z8 | z8 | z8 | z8 | %56
 z8 | z8 | z8 | z8 | z8 | z8 | z8 || z8 | z8 | z8 |"^-natural 6 5\n43" z8 | z8 | z8 | z8 | z8 | %71
 z8 | z8 | z8 | z8 | z8 | z8 | z8 | z8 | z8 |] %80
V:3
 A,,8 | A,,8- | A,,4 D,4 | D,8 | G,,4 C,4- | C,2 A,,2 G,,4 | C,8 | C,8 | G,,8 | ^G,,4 A,,4 | %10
"^# 4 5" D,4 D,4 | G,4 A,,4- | A,,2 B,,2 C,2 B,,2 | A,,2 D,2 G,,2 A,,2 | B,,2 G,,2 C,2 D,2 | %15
 E,2 C,2 D,2 E,2 | F,2 G,2 A,4 | D,6 E,2 | F,2 G,2 A,2 B,2 | C2 B,2 A,2 G,2 | F,2 E,2 D,2 C,2 | %21
 B,,2 A,,2 E,4 | A,,8 || A,,8 | A,,8 | A,,4 D,4 | D,8 | G,,4 C,4 | F,,4 G,,4- | G,,8 | C,8 | C,8 | %32
 A,,4 G,,4- | G,,4 ^G,,4 | A,,8 | D,4 E,4 | A,,6 B,,2 | C,2 B,,2 A,,2 D,2 | G,,2 A,,2 B,,2 G,,2 | %39
 C,2 D,2 E,2 C,2 | D,2 E,2 F,2 G,_B, | A,4 D,4- | D,2 E,2 F,2 G,2 | A,2 B,2 C2 B,2 | %44
 A,2 G,2 F,2 E,2 | D,2 C,2 B,,2 A,,2 | E,4 A,,4 || A,,8 | D,8 | G,,8 | G,,4 C,4 | %51
 C,2 B,,2 A,,2 D,2 | G,,8 | ^G,,4 A,,4- | A,,4 B,,4 | E,6 D,2 | C,2 D,2 E,2 ^F,2 | %57
 G,2 A,2 B,2 ^G,2 | A,2 ^F,2 G,2 E,2 | B,,2 C,2 G,,4 | D,4 E,4- |"^3 -natural 3" E,2 F,2 E,4 | %62
 A,,8 || A,,8- | A,,4 D,4 | D,8 | G,,8 | C,4 C,2 B,,2 | A,,2 D,2 G,,4 | A,,8 | B,,4 E,4 | %71
 E,2 D,2 C,2 D,2 | E,2 ^F,2 G,2 A,2 | B,2 ^G,2 A,2 ^F,2 | G,2 E,2 B,,2 C,2 | G,,4 D,4 | E,8 | F,8 | %78
 E,8 | A,,8 |] %80

